img/link.svg

<svg xmlns="http://www.w3.org/2000/svg" width="24" height="24">
  <path d="M10.59 13.41a.97.97 0 010 1.42 1 1 0 01-1.42 0 5 5 0 010-7.07l3.54-3.54a5 5 0 017.07 7.07l-1.49 1.49a6.9 6.9 0 00-.4-2.42l.47-.48a2.98 2.98 0 000-4.24 2.98 2.98 0 00-4.24 0l-3.53 3.53a2.98 2.98 0 000 4.24m2.82-4.24a1 1 0 011.42 0 5 5 0 010 7.07l-3.54 3.54a5 5 0 01-7.07-7.07l1.49-1.49a7 7 0 00.4 2.43l-.47.47a2.98 2.98 0 000 4.24 2.98 2.98 0 004.24 0l3.53-3.53a2.98 2.98 0 000-4.24.97.97 0 010-1.42z"/>
</svg>

<?xml version="1.0" encoding="UTF-8"?><!DOCTYPE svg PUBLIC "-//W3C//DTD SVG 1.1//EN" "http://www.w3.org/Graphics/SVG/1.1/DTD/svg11.dtd"><svg xmlns="http://www.w3.org/2000/svg" xmlns:xlink="http://www.w3.org/1999/xlink" version="1.1" width="24" height="24" viewBox="0 0 24 24"><path d="M10.59,13.41C11,13.8 11,14.44 10.59,14.83C10.2,15.22 9.56,15.22 9.17,14.83C7.22,12.88 7.22,9.71 9.17,7.76V7.76L12.71,4.22C14.66,2.27 17.83,2.27 19.78,4.22C21.73,6.17 21.73,9.34 19.78,11.29L18.29,12.78C18.3,11.96 18.17,11.14 17.89,10.36L18.36,9.88C19.54,8.71 19.54,6.81 18.36,5.64C17.19,4.46 15.29,4.46 14.12,5.64L10.59,9.17C9.41,10.34 9.41,12.24 10.59,13.41M13.41,9.17C13.8,8.78 14.44,8.78 14.83,9.17C16.78,11.12 16.78,14.29 14.83,16.24V16.24L11.29,19.78C9.34,21.73 6.17,21.73 4.22,19.78C2.27,17.83 2.27,14.66 4.22,12.71L5.71,11.22C5.7,12.04 5.83,12.86 6.11,13.65L5.64,14.12C4.46,15.29 4.46,17.19 5.64,18.36C6.81,19.54 8.71,19.54 9.88,18.36L13.41,14.83C14.59,13.66 14.59,11.76 13.41,10.59C13,10.2 13,9.56 13.41,9.17Z" /></svg>
